assets/Backhand index pointing up/Light/Flat/backhand_index_pointing_up_flat_light.svg

<svg width="32" height="32" viewBox="0 0 32 32" fill="none" xmlns="http://www.w3.org/2000/svg">
<g clip-path="url(#clip0_20020_5322)">
<path d="M11.4375 24.3125C9.71139 20.0968 5.73434 18.4737 4.85934 17.5675C3.98434 16.6612 3.88613 14.9733 4.85934 13.9375C6.11716 12.5987 7.42839 12.9428 8.95313 13.8437C9.46875 14.1484 11.1719 15.2812 11.1719 15.2812L11.1719 5.03124C11.1719 2.92187 12.4338 1.98999 13.5938 1.98999C14.7537 1.98999 16.1562 3.15624 16.1562 5.03124L16.1562 8.99999C16.1562 8.99999 16.7675 7.68749 18.5644 7.68749C20.3612 7.68749 20.875 9.31249 20.875 9.31249C20.875 9.31249 21.2578 8.46094 22.9297 8.46094C24.5078 8.46094 25.1719 10.1094 25.1719 10.1094C25.1719 10.1094 25.7422 9.50781 27.1484 9.50781C28.2266 9.50781 30.125 11.0312 30.125 12.6719C30.125 19.7624 29.4233 29.99 20.03 29.99C17.54 30 13.1636 28.5282 11.4375 24.3125Z" fill="#FFD7C2"/>
<path fill-rule="evenodd" clip-rule="evenodd" d="M13.0796 2.05127C12.6559 2.46731 12.1563 3.72255 12.1563 5.98438L12.1563 15.3984C12.1563 16.2578 11.1875 16.1953 11.1875 15.3984C11.1875 15.0011 11.1822 14.4855 11.1719 13.9063V5.03125C11.1719 3.23216 12.0898 2.28963 13.0796 2.05127Z" fill="#F3C07B"/>
<path fill-rule="evenodd" clip-rule="evenodd" d="M16.1562 8L16.1562 8.99999C16.1562 8.99999 16.4297 8.41284 17.1484 8.02396L17.1484 12.5156C17.1484 12.7918 16.9246 13.0156 16.6484 13.0156C16.3723 13.0156 16.1484 12.7918 16.1484 12.5156V8H16.1562Z" fill="#F3C07B"/>
<path fill-rule="evenodd" clip-rule="evenodd" d="M20.875 9.31245C20.875 9.3125 20.875 9.31253 20.875 9.31253C20.875 9.31253 21.0853 8.84468 21.875 8.60254L21.875 11.5313C21.875 11.8074 21.6511 12.0313 21.375 12.0313C21.0989 12.0313 20.875 11.8074 20.875 11.5313V9.31245Z" fill="#F3C07B"/>
<path fill-rule="evenodd" clip-rule="evenodd" d="M25.1641 10.0909C25.1693 10.1029 25.1719 10.1094 25.1719 10.1094C25.1719 10.1094 25.4693 9.79567 26.1641 9.62134L26.1641 13.5C26.1641 13.7761 25.9402 14 25.6641 14C25.3879 14 25.1641 13.7761 25.1641 13.5V10.0909Z" fill="#F3C07B"/>
</g>
<defs>
<clipPath id="clip0_20020_5322">
<rect width="32" height="32" fill="white"/>
</clipPath>
</defs>
</svg>

<svg xmlns="http://www.w3.org/2000/svg" width="32" height="32" fill="none"><g clip-path="url(#a)"><path fill="#FFD7C2" d="M11.438 24.313c-1.727-4.216-5.704-5.84-6.579-6.745-.875-.907-.973-2.595 0-3.63 1.258-1.34 2.57-.995 4.094-.094.516.304 2.219 1.437 2.219 1.437V5.031c0-2.11 1.262-3.041 2.422-3.041 1.16 0 2.562 1.166 2.562 3.041V9s.611-1.313 2.408-1.313 2.311 1.625 2.311 1.625.383-.851 2.055-.851c1.578 0 2.242 1.648 2.242 1.648s.57-.601 1.976-.601c1.079 0 2.977 1.523 2.977 3.164 0 7.09-.702 17.318-10.095 17.318-2.49.01-6.866-1.462-8.593-5.677Z"/><path fill="#F3C07B" fill-rule="evenodd" d="M13.08 2.051c-.424.416-.924 1.672-.924 3.933v9.414c0 .86-.969.797-.969 0 0-.397-.005-.912-.015-1.492V5.031c0-1.799.918-2.741 1.908-2.98ZM16.156 8v1s.274-.587.992-.976v4.492a.5.5 0 1 1-1 0V8h.008ZM20.875 9.312s.21-.467 1-.71v2.93a.5.5 0 0 1-1 0v-2.22ZM25.164 10.09a.79.79 0 0 1 .008.02s.297-.314.992-.489V13.5a.5.5 0 0 1-1 0v-3.41Z" clip-rule="evenodd"/></g><defs><clipPath id="a"><path fill="#fff" d="M0 0h32v32H0z"/></clipPath></defs></svg>
